assets/dude/That–Tammy.svg

<svg width="376" height="103" viewBox="0 0 376 103" fill="none" xmlns="http://www.w3.org/2000/svg">
<path d="M83.4422 10.02C55.3022 10.02 61.4622 0.780029 42.8422 0.780029C24.2222 0.780029 30.3822 10.02 2.24223 10.02C0.982226 10.02 0.282227 10.72 0.282227 11.98C0.282227 13.24 2.80223 25.28 2.80223 37.74V49.22C2.80223 49.92 3.36223 50.48 4.06223 50.48H11.6222C12.3222 50.48 12.8822 49.92 12.8822 49.22V47.96C12.8822 43.06 16.8022 39.14 21.7022 39.14H36.5422C37.2422 39.14 37.8022 39.7 37.8022 40.4V65.6C37.8022 66.16 37.5222 66.58 37.1022 66.72H22.6822C21.9822 66.72 21.4222 67.28 21.4222 67.98C21.4222 80.44 18.9022 92.48 18.9022 93.74C18.9022 95 19.6022 95.7 20.8622 95.7C27.0222 95.7 34.3022 102.98 42.8422 102.98C51.3822 102.98 58.6622 95.7 64.8222 95.7C66.0822 95.7 66.7822 95 66.7822 93.74C66.7822 92.48 64.2622 80.44 64.2622 67.98C64.2622 67.28 63.7022 66.72 63.0022 66.72H48.5822C48.1622 66.58 47.8822 66.16 47.8822 65.6V40.4C47.8822 39.7 48.4422 39.14 49.1422 39.14H63.9822C68.8822 39.14 72.8022 43.06 72.8022 47.96V49.22C72.8022 49.92 73.3622 50.48 74.0622 50.48H81.6222C82.3222 50.48 82.8822 49.92 82.8822 49.22V37.74C82.8822 25.28 85.4022 13.24 85.4022 11.98C85.4022 10.72 84.7022 10.02 83.4422 10.02Z" fill="#FF1C31"/>
<path d="M188.643 66.72H174.783C174.083 66.72 173.523 66.16 173.523 65.46V40.26C173.523 39.56 174.083 39 174.783 39H188.643C189.343 39 189.903 38.44 189.903 37.74C189.903 25.28 192.423 13.24 192.423 11.98C192.423 10.72 191.723 10.02 190.463 10.02C184.303 10.02 177.023 2.74003 168.483 2.74003C159.943 2.74003 152.663 10.02 146.503 10.02C145.243 10.02 144.543 10.72 144.543 11.98C144.543 13.24 147.063 25.28 147.063 37.74C147.063 38.44 147.623 39 148.323 39H162.183C162.883 39 163.443 39.56 163.443 40.26V47.82C163.443 48.52 162.883 49.08 162.183 49.08H121.863C121.163 49.08 120.603 48.52 120.603 47.82V40.26C120.603 39.56 121.163 39 121.863 39H135.723C136.423 39 136.983 38.44 136.983 37.74C136.983 25.28 139.503 13.24 139.503 11.98C139.503 10.72 138.803 10.02 137.543 10.02C131.383 10.02 124.103 2.74003 115.563 2.74003C107.023 2.74003 99.7435 10.02 93.5835 10.02C92.3235 10.02 91.6235 10.72 91.6235 11.98C91.6235 13.24 94.1435 25.28 94.1435 37.74C94.1435 38.44 94.7035 39 95.4035 39H109.263C109.963 39 110.523 39.56 110.523 40.26V65.46C110.523 66.16 109.963 66.72 109.263 66.72H95.4035C94.7035 66.72 94.1435 67.28 94.1435 67.98C94.1435 80.44 91.6235 92.48 91.6235 93.74C91.6235 95 92.3235 95.7 93.5835 95.7C99.7435 95.7 107.023 102.98 115.563 102.98C124.103 102.98 131.383 95.7 137.543 95.7C138.803 95.7 139.503 95 139.503 93.74C139.503 92.48 136.983 80.44 136.983 67.98C136.983 67.28 136.423 66.72 135.723 66.72H121.863C121.163 66.72 120.603 66.16 120.603 65.46V57.9C120.603 57.2 121.163 56.64 121.863 56.64H162.183C162.883 56.64 163.443 57.2 163.443 57.9V65.46C163.443 66.16 162.883 66.72 162.183 66.72H148.323C147.623 66.72 147.063 67.28 147.063 67.98C147.063 80.44 144.543 92.48 144.543 93.74C144.543 95 145.243 95.7 146.503 95.7C152.663 95.7 159.943 102.98 168.483 102.98C177.023 102.98 184.303 95.7 190.463 95.7C191.723 95.7 192.423 95 192.423 93.74C192.423 92.48 189.903 80.44 189.903 67.98C189.903 67.28 189.343 66.72 188.643 66.72Z" fill="#FF1C31"/>
<path d="M296.394 67.98C296.394 67.28 295.834 66.72 295.134 66.72H283.934L282.954 66.16C282.254 66.16 281.554 66.16 280.854 65.04L265.174 40.4C265.174 40.4 264.894 39.98 264.894 39.56C264.894 39.28 265.174 39 265.734 39H268.674C269.374 39 269.934 38.44 269.934 37.74C269.934 25.28 272.454 13.24 272.454 11.98C272.454 10.72 271.754 10.02 270.494 10.02C264.334 10.02 257.054 2.74003 248.514 2.74003C239.974 2.74003 232.694 10.02 226.534 10.02C225.274 10.02 224.574 10.72 224.574 11.98C224.574 13.24 227.094 25.28 227.094 37.74C227.094 38.44 227.654 39 228.354 39H232.974C233.534 39 233.814 39.28 233.814 39.56C233.814 39.98 233.534 40.4 233.534 40.4L217.854 65.04C217.154 66.16 216.734 66.72 216.034 66.72H201.894C201.194 66.72 200.634 67.28 200.634 67.98C200.634 80.44 198.114 92.48 198.114 93.74C198.114 95 198.814 95.7 200.074 95.7C206.234 95.7 213.514 102.98 222.054 102.98C230.594 102.98 237.874 95.7 244.034 95.7C245.294 95.7 245.994 95 245.994 93.74C245.994 92.48 243.474 80.44 243.474 67.98C243.474 67.28 242.914 66.72 242.214 66.72H228.914C228.354 66.72 227.934 66.72 227.934 66.44C227.934 66.02 228.214 65.6 228.214 65.6L231.714 60.14C232.414 59.02 232.834 58.46 233.534 58.46H260.694C261.394 58.46 261.814 59.02 262.514 60.14L265.874 65.32C265.874 65.32 266.154 65.74 266.154 66.16C266.154 66.44 265.874 66.72 265.314 66.72H254.814C254.114 66.72 253.554 67.28 253.554 67.98C253.554 80.44 251.034 92.48 251.034 93.74C251.034 95 251.734 95.7 252.994 95.7C259.154 95.7 266.434 102.98 274.974 102.98C283.514 102.98 290.794 95.7 296.954 95.7C298.214 95.7 298.914 95 298.914 93.74C298.914 92.48 296.394 80.44 296.394 67.98ZM255.234 50.9H238.994C238.434 50.9 238.154 50.62 238.154 50.34C238.154 49.92 238.434 49.5 238.434 49.5L243.754 40.68C244.454 39.56 244.874 39 245.574 39H248.514C249.214 39 249.634 39.56 250.334 40.68L255.794 49.5C255.794 49.5 256.074 49.92 256.074 50.34C256.074 50.62 255.794 50.9 255.234 50.9Z" fill="#FF1C31"/>
<path d="M373.696 10.02C345.556 10.02 351.716 0.780029 333.096 0.780029C314.476 0.780029 320.636 10.02 292.496 10.02C291.236 10.02 290.536 10.72 290.536 11.98C290.536 13.24 293.056 25.28 293.056 37.74V49.22C293.056 49.92 293.616 50.48 294.316 50.48H301.876C302.576 50.48 303.136 49.92 303.136 49.22V47.96C303.136 43.06 307.056 39.14 311.956 39.14H326.796C327.496 39.14 328.056 39.7 328.056 40.4V65.6C328.056 66.16 327.776 66.58 327.356 66.72H312.936C312.236 66.72 311.676 67.28 311.676 67.98C311.676 80.44 309.156 92.48 309.156 93.74C309.156 95 309.856 95.7 311.116 95.7C317.276 95.7 324.556 102.98 333.096 102.98C341.636 102.98 348.916 95.7 355.076 95.7C356.336 95.7 357.036 95 357.036 93.74C357.036 92.48 354.516 80.44 354.516 67.98C354.516 67.28 353.956 66.72 353.256 66.72H338.836C338.416 66.58 338.136 66.16 338.136 65.6V40.4C338.136 39.7 338.696 39.14 339.396 39.14H354.236C359.136 39.14 363.056 43.06 363.056 47.96V49.22C363.056 49.92 363.616 50.48 364.316 50.48H371.876C372.576 50.48 373.136 49.92 373.136 49.22V37.74C373.136 25.28 375.656 13.24 375.656 11.98C375.656 10.72 374.956 10.02 373.696 10.02Z" fill="#FF1C31"/>
</svg>

<svg xmlns="http://www.w3.org/2000/svg" fill="none" viewBox="0 0 376 103"><path fill="#FF1C31" d="M83.442 10.02c-28.14 0-21.98-9.24-40.6-9.24s-12.46 9.24-40.6 9.24c-1.26 0-1.96.7-1.96 1.96s2.52 13.3 2.52 25.76v11.48c0 .7.56 1.26 1.26 1.26h7.56c.7 0 1.26-.56 1.26-1.26v-1.26c0-4.9 3.92-8.82 8.82-8.82h14.84c.7 0 1.26.56 1.26 1.26v25.2c0 .56-.28.98-.7 1.12h-14.42c-.7 0-1.26.56-1.26 1.26 0 12.46-2.52 24.5-2.52 25.76 0 1.26.7 1.96 1.96 1.96 6.16 0 13.44 7.28 21.98 7.28 8.54 0 15.82-7.28 21.98-7.28 1.26 0 1.96-.7 1.96-1.96s-2.52-13.3-2.52-25.76c0-.7-.56-1.26-1.26-1.26h-14.42c-.42-.14-.7-.56-.7-1.12V40.4c0-.7.56-1.26 1.26-1.26h14.84c4.9 0 8.82 3.92 8.82 8.82v1.26c0 .7.56 1.26 1.26 1.26h7.56c.7 0 1.26-.56 1.26-1.26V37.74c0-12.46 2.52-24.5 2.52-25.76 0-1.26-.7-1.96-1.96-1.96zM188.643 66.72h-13.86c-.7 0-1.26-.56-1.26-1.26v-25.2c0-.7.56-1.26 1.26-1.26h13.86c.7 0 1.26-.56 1.26-1.26 0-12.46 2.52-24.5 2.52-25.76 0-1.26-.7-1.96-1.96-1.96-6.16 0-13.44-7.28-21.98-7.28-8.54 0-15.82 7.28-21.98 7.28-1.26 0-1.96.7-1.96 1.96s2.52 13.3 2.52 25.76c0 .7.56 1.26 1.26 1.26h13.86c.7 0 1.26.56 1.26 1.26v7.56c0 .7-.56 1.26-1.26 1.26h-40.32c-.7 0-1.26-.56-1.26-1.26v-7.56c0-.7.56-1.26 1.26-1.26h13.86c.7 0 1.26-.56 1.26-1.26 0-12.46 2.52-24.5 2.52-25.76 0-1.26-.7-1.96-1.96-1.96-6.16 0-13.44-7.28-21.98-7.28-8.54 0-15.82 7.28-21.98 7.28-1.26 0-1.96.7-1.96 1.96s2.52 13.3 2.52 25.76c0 .7.56 1.26 1.26 1.26h13.86c.7 0 1.26.56 1.26 1.26v25.2c0 .7-.56 1.26-1.26 1.26h-13.86c-.7 0-1.26.56-1.26 1.26 0 12.46-2.52 24.5-2.52 25.76 0 1.26.7 1.96 1.96 1.96 6.16 0 13.44 7.28 21.98 7.28 8.54 0 15.82-7.28 21.98-7.28 1.26 0 1.96-.7 1.96-1.96s-2.52-13.3-2.52-25.76c0-.7-.56-1.26-1.26-1.26h-13.86c-.7 0-1.26-.56-1.26-1.26V57.9c0-.7.56-1.26 1.26-1.26h40.32c.7 0 1.26.56 1.26 1.26v7.56c0 .7-.56 1.26-1.26 1.26h-13.86c-.7 0-1.26.56-1.26 1.26 0 12.46-2.52 24.5-2.52 25.76 0 1.26.7 1.96 1.96 1.96 6.16 0 13.44 7.28 21.98 7.28 8.54 0 15.82-7.28 21.98-7.28 1.26 0 1.96-.7 1.96-1.96s-2.52-13.3-2.52-25.76c0-.7-.56-1.26-1.26-1.26zM296.394 67.98c0-.7-.56-1.26-1.26-1.26h-11.2l-.98-.56c-.7 0-1.4 0-2.1-1.12l-15.68-24.64s-.28-.42-.28-.84c0-.28.28-.56.84-.56h2.94c.7 0 1.26-.56 1.26-1.26 0-12.46 2.52-24.5 2.52-25.76 0-1.26-.7-1.96-1.96-1.96-6.16 0-13.44-7.28-21.98-7.28-8.54 0-15.82 7.28-21.98 7.28-1.26 0-1.96.7-1.96 1.96s2.52 13.3 2.52 25.76c0 .7.56 1.26 1.26 1.26h4.62c.56 0 .84.28.84.56 0 .42-.28.84-.28.84l-15.68 24.64c-.7 1.12-1.12 1.68-1.82 1.68h-14.14c-.7 0-1.26.56-1.26 1.26 0 12.46-2.52 24.5-2.52 25.76 0 1.26.7 1.96 1.96 1.96 6.16 0 13.44 7.28 21.98 7.28 8.54 0 15.82-7.28 21.98-7.28 1.26 0 1.96-.7 1.96-1.96s-2.52-13.3-2.52-25.76c0-.7-.56-1.26-1.26-1.26h-13.3c-.56 0-.98 0-.98-.28 0-.42.28-.84.28-.84l3.5-5.46c.7-1.12 1.12-1.68 1.82-1.68h27.16c.7 0 1.12.56 1.82 1.68l3.36 5.18s.28.42.28.84c0 .28-.28.56-.84.56h-10.5c-.7 0-1.26.56-1.26 1.26 0 12.46-2.52 24.5-2.52 25.76 0 1.26.7 1.96 1.96 1.96 6.16 0 13.44 7.28 21.98 7.28 8.54 0 15.82-7.28 21.98-7.28 1.26 0 1.96-.7 1.96-1.96s-2.52-13.3-2.52-25.76zm-41.16-17.08h-16.24c-.56 0-.84-.28-.84-.56 0-.42.28-.84.28-.84l5.32-8.82c.7-1.12 1.12-1.68 1.82-1.68h2.94c.7 0 1.12.56 1.82 1.68l5.46 8.82s.28.42.28.84c0 .28-.28.56-.84.56zM373.696 10.02c-28.14 0-21.98-9.24-40.6-9.24s-12.46 9.24-40.6 9.24c-1.26 0-1.96.7-1.96 1.96s2.52 13.3 2.52 25.76v11.48c0 .7.56 1.26 1.26 1.26h7.56c.7 0 1.26-.56 1.26-1.26v-1.26c0-4.9 3.92-8.82 8.82-8.82h14.84c.7 0 1.26.56 1.26 1.26v25.2c0 .56-.28.98-.7 1.12h-14.42c-.7 0-1.26.56-1.26 1.26 0 12.46-2.52 24.5-2.52 25.76 0 1.26.7 1.96 1.96 1.96 6.16 0 13.44 7.28 21.98 7.28 8.54 0 15.82-7.28 21.98-7.28 1.26 0 1.96-.7 1.96-1.96s-2.52-13.3-2.52-25.76c0-.7-.56-1.26-1.26-1.26h-14.42c-.42-.14-.7-.56-.7-1.12V40.4c0-.7.56-1.26 1.26-1.26h14.84c4.9 0 8.82 3.92 8.82 8.82v1.26c0 .7.56 1.26 1.26 1.26h7.56c.7 0 1.26-.56 1.26-1.26V37.74c0-12.46 2.52-24.5 2.52-25.76 0-1.26-.7-1.96-1.96-1.96z"/></svg>
